mimes/64/text-x-changelog.svg

<?xml version="1.0" encoding="UTF-8" standalone="no"?>
<svg
   xmlns:dc="http://purl.org/dc/elements/1.1/"
   xmlns:cc="http://creativecommons.org/ns#"
   xmlns:rdf="http://www.w3.org/1999/02/22-rdf-syntax-ns#"
   xmlns:svg="http://www.w3.org/2000/svg"
   xmlns="http://www.w3.org/2000/svg"
   xmlns:xlink="http://www.w3.org/1999/xlink"
   version="1.1"
   width="64"
   height="64"
   id="svg3844">
  <defs
     id="defs3846">
    <linearGradient
       x1="-51.786404"
       y1="50.786446"
       x2="-51.786404"
       y2="2.9062471"
       id="linearGradient3033"
       xlink:href="#linearGradient3104-6"
       gradientUnits="userSpaceOnUse"
       gradientTransform="matrix(1.0843523,0,0,1.1997367,79.550862,-4.1628601)" />
    <linearGradient
       id="linearGradient3104-6">
      <stop
         id="stop3106-3"
         style="stop-color:#000000;stop-opacity:0.31782946"
         offset="0" />
      <stop
         id="stop3108-9"
         style="stop-color:#000000;stop-opacity:0.24031007"
         offset="1" />
    </linearGradient>
    <linearGradient
       x1="23.99999"
       y1="5.8641062"
       x2="23.99999"
       y2="42.175503"
       id="linearGradient3093"
       xlink:href="#linearGradient3977-4"
       gradientUnits="userSpaceOnUse"
       gradientTransform="matrix(1.2162162,0,0,1.5405376,2.8108184,-6.9729501)" />
    <linearGradient
       id="linearGradient3977-4">
      <stop
         id="stop3979-7"
         style="stop-color:#ffffff;stop-opacity:1"
         offset="0" />
      <stop
         id="stop3981-6"
         style="stop-color:#ffffff;stop-opacity:0.23529412"
         offset="0" />
      <stop
         id="stop3983-5"
         style="stop-color:#ffffff;stop-opacity:0.15686275"
         offset="1" />
      <stop
         id="stop3985-6"
         style="stop-color:#ffffff;stop-opacity:0.39215687"
         offset="1" />
    </linearGradient>
    <linearGradient
       x1="25.132275"
       y1="0.98520643"
       x2="25.132275"
       y2="47.013336"
       id="linearGradient3096"
       xlink:href="#linearGradient3600-9"
       gradientUnits="userSpaceOnUse"
       gradientTransform="matrix(1.3142827,0,0,1.2602393,0.4572141,-2.1793201)" />
    <linearGradient
       id="linearGradient3600-9">
      <stop
         id="stop3602-3"
         style="stop-color:#f4f4f4;stop-opacity:1"
         offset="0" />
      <stop
         id="stop3604-7"
         style="stop-color:#dbdbdb;stop-opacity:1"
         offset="1" />
    </linearGradient>
    <radialGradient
       cx="605.71429"
       cy="486.64789"
       r="117.14286"
       fx="605.71429"
       fy="486.64789"
       id="radialGradient3153"
       xlink:href="#linearGradient5060"
       gradientUnits="userSpaceOnUse"
       gradientTransform="matrix(0.03132633,0,0,0.02058823,35.220859,49.45142)" />
    <linearGradient
       id="linearGradient5060">
      <stop
         id="stop5062"
         style="stop-color:#000000;stop-opacity:1"
         offset="0" />
      <stop
         id="stop5064"
         style="stop-color:#000000;stop-opacity:0"
         offset="1" />
    </linearGradient>
    <radialGradient
       cx="605.71429"
       cy="486.64789"
       r="117.14286"
       fx="605.71429"
       fy="486.64789"
       id="radialGradient3156"
       xlink:href="#linearGradient5060"
       gradientUnits="userSpaceOnUse"
       gradientTransform="matrix(-0.03132632,0,0,0.02058823,28.779136,49.45142)" />
    <linearGradient
       id="linearGradient5048">
      <stop
         id="stop5050"
         style="stop-color:#000000;stop-opacity:0"
         offset="0" />
      <stop
         id="stop5056"
         style="stop-color:#000000;stop-opacity:1"
         offset="0.5" />
      <stop
         id="stop5052"
         style="stop-color:#000000;stop-opacity:0"
         offset="1" />
    </linearGradient>
    <linearGradient
       x1="302.85715"
       y1="366.64789"
       x2="302.85715"
       y2="609.50507"
       id="linearGradient3842"
       xlink:href="#linearGradient5048"
       gradientUnits="userSpaceOnUse"
       gradientTransform="matrix(0.09153846,0,0,0.02058823,-1.084616,49.45142)" />
  </defs>
  <metadata
     id="metadata3849">
    <rdf:RDF>
      <cc:Work
         rdf:about="">
        <dc:format>image/svg+xml</dc:format>
        <dc:type
           rdf:resource="http://purl.org/dc/dcmitype/StillImage" />
        <dc:title></dc:title>
      </cc:Work>
    </rdf:RDF>
  </metadata>
  <rect
     style="display:inline;overflow:visible;visibility:visible;opacity:0.15;fill:url(#linearGradient3842);fill-opacity:1;fill-rule:nonzero;stroke:none;stroke-width:1;marker:none"
     id="rect2879"
     y="57.000004"
     x="9.8999996"
     height="5"
     width="44.199997" />
  <path
     style="display:inline;overflow:visible;visibility:visible;opacity:0.15;fill:url(#radialGradient3156);fill-opacity:1;fill-rule:nonzero;stroke:none;stroke-width:1;marker:none"
     id="path2881"
     d="m 9.9,57.00022 c 0,0 0,4.9997 0,4.9997 -1.6132281,0.01 -3.9,-1.1202 -3.9,-2.5002 0,-1.38 1.8002408,-2.4995 3.9,-2.4995 z" />
  <path
     style="display:inline;overflow:visible;visibility:visible;opacity:0.15;fill:url(#radialGradient3153);fill-opacity:1;fill-rule:nonzero;stroke:none;stroke-width:1;marker:none"
     id="path2883"
     d="m 54.099999,57.00022 c 0,0 0,4.9997 0,4.9997 C 55.713227,62.00992 58,60.87972 58,59.49972 c 0,-1.38 -1.800241,-2.4995 -3.900001,-2.4995 z" />
  <path
     style="display:inline;fill:url(#linearGradient3096);fill-opacity:1;stroke:none"
     id="path4160-6"
     d="m 9,0.9998799 c 10.540935,0 45.999945,0.004 45.999945,0.004 L 55,59.00002 c 0,0 -30.666666,0 -46,0 0,-19.3334 0,-38.6665 0,-57.9998201 z" />
  <path
     style="fill:none;stroke:url(#linearGradient3093);stroke-width:1;stroke-linecap:round;stroke-linejoin:miter;stroke-miterlimit:4;stroke-dasharray:none;stroke-dashoffset:0;stroke-opacity:1"
     id="rect6741-1-8"
     d="m 54.499999,58.50002 -44.9999992,0 0,-57.0000401 44.9999992,0 z" />
  <path
     style="display:inline;fill:none;stroke:url(#linearGradient3033);stroke-width:0.9999218;stroke-linecap:butt;stroke-linejoin:round;stroke-miterlimit:4;stroke-dasharray:none;stroke-dashoffset:0;stroke-opacity:1"
     id="path4160-6-1"
     d="m 8.4999684,0.4998999 c 10.7700936,0 47.0000286,0.004 47.0000286,0.004 l 4.9e-5,58.9962201 c 0,0 -31.333384,0 -47.0000776,0 0,-19.6668 0,-39.3334 0,-58.9999701 z" />
  <path
     id="rect4250"
     d="M 19.5,21 C 19.223,21 19,21.223 19,21.5 v 1 c 0,0.277 0.223,0.5 0.5,0.5 h 1 c 0.277,0 0.5,-0.223 0.5,-0.5 v -1 C 21,21.223 20.777,21 20.5,21 Z m 5,0 C 24.223,21 24,21.223 24,21.5 v 1 c 0,0.277 0.223,0.5 0.5,0.5 h 17 c 0.277,0 0.5,-0.223 0.5,-0.5 v -1 C 42,21.223 41.777,21 41.5,21 Z m -5,18 C 19.223,39 19,39.223 19,39.5 v 1 c 0,0.277 0.223,0.5 0.5,0.5 h 1 c 0.277,0 0.5,-0.223 0.5,-0.5 v -1 C 21,39.223 20.777,39 20.5,39 Z m 5,0 C 24.223,39 24,39.223 24,39.5 v 1 c 0,0.277 0.223,0.5 0.5,0.5 h 17 c 0.277,0 0.5,-0.223 0.5,-0.5 v -1 C 42,39.223 41.777,39 41.5,39 Z"
     style="color:#000000;clip-rule:nonzero;display:inline;overflow:visible;visibility:visible;opacity:1;isolation:auto;mix-blend-mode:normal;color-interpolation:sRGB;color-interpolation-filters:linearRGB;solid-color:#000000;solid-opacity:1;fill:#abacae;fill-opacity:1;fill-rule:nonzero;stroke:none;stroke-width:1;stroke-linecap:butt;stroke-linejoin:miter;stroke-miterlimit:4;stroke-dasharray:none;stroke-dashoffset:0;stroke-opacity:1;marker:none;color-rendering:auto;image-rendering:auto;shape-rendering:auto;text-rendering:auto;enable-background:accumulate" />
  <path
     id="rect4250-5"
     d="M 21.5,27 C 21.223,27 21,27.223 21,27.5 v 1 c 0,0.277 0.223,0.5 0.5,0.5 h 1 c 0.277,0 0.5,-0.223 0.5,-0.5 v -1 C 23,27.223 22.777,27 22.5,27 Z m 5,0 C 26.223,27 26,27.223 26,27.5 v 1 c 0,0.277 0.223,0.5 0.5,0.5 h 17 c 0.277,0 0.5,-0.223 0.5,-0.5 v -1 C 44,27.223 43.777,27 43.5,27 Z"
     style="color:#000000;clip-rule:nonzero;display:inline;overflow:visible;visibility:visible;opacity:1;isolation:auto;mix-blend-mode:normal;color-interpolation:sRGB;color-interpolation-filters:linearRGB;solid-color:#000000;solid-opacity:1;fill:#ed5353;fill-opacity:1;fill-rule:nonzero;stroke:none;stroke-width:1;stroke-linecap:butt;stroke-linejoin:miter;stroke-miterlimit:4;stroke-dasharray:none;stroke-dashoffset:0;stroke-opacity:1;marker:none;color-rendering:auto;image-rendering:auto;shape-rendering:auto;text-rendering:auto;enable-background:accumulate" />
  <path
     id="rect4250-5-5"
     d="M 21.5,33 C 21.223,33 21,33.223 21,33.5 v 1 c 0,0.277 0.223,0.5 0.5,0.5 h 1 c 0.277,0 0.5,-0.223 0.5,-0.5 v -1 C 23,33.223 22.777,33 22.5,33 Z m 5,0 C 26.223,33 26,33.223 26,33.5 v 1 c 0,0.277 0.223,0.5 0.5,0.5 h 17 c 0.277,0 0.5,-0.223 0.5,-0.5 v -1 C 44,33.223 43.777,33 43.5,33 Z"
     style="color:#000000;clip-rule:nonzero;display:inline;overflow:visible;visibility:visible;opacity:1;isolation:auto;mix-blend-mode:normal;color-interpolation:sRGB;color-interpolation-filters:linearRGB;solid-color:#000000;solid-opacity:1;fill:#68b723;fill-opacity:1;fill-rule:nonzero;stroke:none;stroke-width:1;stroke-linecap:butt;stroke-linejoin:miter;stroke-miterlimit:4;stroke-dasharray:none;stroke-dashoffset:0;stroke-opacity:1;marker:none;color-rendering:auto;image-rendering:auto;shape-rendering:auto;text-rendering:auto;enable-background:accumulate" />
</svg>

<?xml version="1.0" encoding="UTF-8" standalone="no"?>
<svg
   xmlns:dc="http://purl.org/dc/elements/1.1/"
   xmlns:cc="http://creativecommons.org/ns#"
   xmlns:rdf="http://www.w3.org/1999/02/22-rdf-syntax-ns#"
   xmlns:svg="http://www.w3.org/2000/svg"
   xmlns="http://www.w3.org/2000/svg"
   xmlns:xlink="http://www.w3.org/1999/xlink"
   xmlns:sodipodi="http://sodipodi.sourceforge.net/DTD/sodipodi-0.dtd"
   xmlns:inkscape="http://www.inkscape.org/namespaces/inkscape"
   version="1.1"
   id="svg4017"
   height="64"
   width="64"
   inkscape:version="0.91 r13725"
   sodipodi:docname="text-x-changelog.svg">
  <sodipodi:namedview
     pagecolor="#ffffff"
     bordercolor="#666666"
     borderopacity="1"
     objecttolerance="10"
     gridtolerance="10"
     guidetolerance="10"
     inkscape:pageopacity="0"
     inkscape:pageshadow="2"
     inkscape:window-width="3200"
     inkscape:window-height="1674"
     id="namedview106"
     showgrid="false"
     showborder="false"
     inkscape:zoom="11.313708"
     inkscape:cx="74.048749"
     inkscape:cy="35.535534"
     inkscape:window-x="0"
     inkscape:window-y="60"
     inkscape:window-maximized="1"
     inkscape:current-layer="svg4017">
    <inkscape:grid
       type="xygrid"
       id="grid4248" />
  </sodipodi:namedview>
  <defs
     id="defs4019">
    <radialGradient
       r="117.14286"
       fy="486.64789"
       fx="605.71429"
       cy="486.64789"
       cx="605.71429"
       gradientTransform="matrix(0.03132633,0,0,0.02058823,35.220859,49.45142)"
       gradientUnits="userSpaceOnUse"
       id="radialGradient3153"
       xlink:href="#linearGradient5060" />
    <linearGradient
       id="linearGradient5060">
      <stop
         offset="0"
         style="stop-color:#000000;stop-opacity:1"
         id="stop5062" />
      <stop
         offset="1"
         style="stop-color:#000000;stop-opacity:0"
         id="stop5064" />
    </linearGradient>
    <radialGradient
       r="117.14286"
       fy="486.64789"
       fx="605.71429"
       cy="486.64789"
       cx="605.71429"
       gradientTransform="matrix(-0.03132632,0,0,0.02058823,28.779136,49.45142)"
       gradientUnits="userSpaceOnUse"
       id="radialGradient3156"
       xlink:href="#linearGradient5060" />
    <linearGradient
       id="linearGradient5048">
      <stop
         offset="0"
         style="stop-color:#000000;stop-opacity:0"
         id="stop5050" />
      <stop
         offset="0.5"
         style="stop-color:#000000;stop-opacity:1"
         id="stop5056" />
      <stop
         offset="1"
         style="stop-color:#000000;stop-opacity:0"
         id="stop5052" />
    </linearGradient>
    <linearGradient
       xlink:href="#linearGradient5048"
       id="linearGradient4015"
       gradientUnits="userSpaceOnUse"
       gradientTransform="matrix(0.09153846,0,0,0.02058823,-1.084616,49.45142)"
       x1="302.85715"
       y1="366.64789"
       x2="302.85715"
       y2="609.50507" />
    <linearGradient
       id="linearGradient3104">
      <stop
         id="stop3106"
         style="stop-color:#a0a0a0;stop-opacity:1;"
         offset="0" />
      <stop
         id="stop3108"
         style="stop-color:#bebebe;stop-opacity:1;"
         offset="1" />
    </linearGradient>
    <linearGradient
       id="linearGradient3600-9">
      <stop
         id="stop3602-3"
         style="stop-color:#f4f4f4;stop-opacity:1"
         offset="0" />
      <stop
         id="stop3604-7"
         style="stop-color:#dbdbdb;stop-opacity:1"
         offset="1" />
    </linearGradient>
    <linearGradient
       id="linearGradient3977-4">
      <stop
         offset="0"
         style="stop-color:#ffffff;stop-opacity:1;"
         id="stop3979-7" />
      <stop
         id="stop3981-6"
         style="stop-color:#ffffff;stop-opacity:0.23529412;"
         offset="0.03626217" />
      <stop
         offset="0.95056331"
         style="stop-color:#ffffff;stop-opacity:0.15686275;"
         id="stop3983-5" />
      <stop
         offset="1"
         style="stop-color:#ffffff;stop-opacity:0.39215687;"
         id="stop3985-6" />
    </linearGradient>
    <linearGradient
       y2="43"
       x2="23.99999"
       y1="5.5641499"
       x1="23.99999"
       gradientTransform="matrix(1.2162162,0,0,1.5405376,2.8108184,-6.97295)"
       gradientUnits="userSpaceOnUse"
       id="linearGradient3093"
       xlink:href="#linearGradient3977-4" />
    <linearGradient
       y2="47.013336"
       x2="25.132275"
       y1="0.98520643"
       x1="25.132275"
       gradientTransform="matrix(1.3428567,0,0,1.2819685,-0.22855506,-2.73405)"
       gradientUnits="userSpaceOnUse"
       id="linearGradient3096"
       xlink:href="#linearGradient3600-9" />
    <linearGradient
       y2="2.9062471"
       x2="-51.786404"
       y1="50.786446"
       x1="-51.786404"
       gradientTransform="matrix(1.0843525,0,0,1.1997316,79.550873,-4.16278)"
       gradientUnits="userSpaceOnUse"
       id="linearGradient3098"
       xlink:href="#linearGradient3104" />
  </defs>
  <metadata
     id="metadata4022">
    <rdf:RDF>
      <cc:Work
         rdf:about="">
        <dc:format>image/svg+xml</dc:format>
        <dc:type
           rdf:resource="http://purl.org/dc/dcmitype/StillImage" />
        <dc:title></dc:title>
      </cc:Work>
    </rdf:RDF>
  </metadata>
  <rect
     style="display:inline;overflow:visible;visibility:visible;opacity:0.15;fill:url(#linearGradient4015);fill-opacity:1;fill-rule:nonzero;stroke:none;stroke-width:1;marker:none"
     id="rect2879"
     y="57.000004"
     x="9.8999996"
     height="5"
     width="44.199997" />
  <path
     style="display:inline;overflow:visible;visibility:visible;opacity:0.15;fill:url(#radialGradient3156);fill-opacity:1;fill-rule:nonzero;stroke:none;stroke-width:1;marker:none"
     id="path2881"
     d="m 9.9,57.00022 c 0,0 0,4.9997 0,4.9997 -1.6132281,0.01 -3.9,-1.1202 -3.9,-2.5002 0,-1.38 1.8002408,-2.4995 3.9,-2.4995 z" />
  <path
     style="display:inline;overflow:visible;visibility:visible;opacity:0.15;fill:url(#radialGradient3153);fill-opacity:1;fill-rule:nonzero;stroke:none;stroke-width:1;marker:none"
     id="path2883"
     d="m 54.099999,57.00022 c 0,0 0,4.9997 0,4.9997 C 55.713227,62.00992 58,60.87972 58,59.49972 c 0,-1.38 -1.800241,-2.4995 -3.900001,-2.4995 z" />
  <path
     style="display:inline;fill:url(#linearGradient3096);fill-opacity:1;stroke:url(#linearGradient3098);stroke-width:0.99992186;stroke-linecap:butt;stroke-linejoin:round;stroke-miterlimit:4;stroke-dasharray:none;stroke-dashoffset:0;stroke-opacity:1"
     id="path4160-6"
     d="m 8.4999609,0.49996 c 10.7701071,0 47.0000371,0.004 47.0000371,0.004 l 5.6e-5,58.99606 c 0,0 -31.333395,0 -47.0000931,0 0,-19.6667 0,-39.3332 0,-58.99981 z" />
  <path
     style="fill:none;stroke:url(#linearGradient3093);stroke-width:1;stroke-linecap:round;stroke-linejoin:miter;stroke-miterlimit:4;stroke-dasharray:none;stroke-dashoffset:0;stroke-opacity:1"
     d="m 54.499999,58.50002 -44.9999992,0 0,-57.00004 44.9999992,0 z"
     id="rect6741-1-8" />
  <path
     style="color:#000000;clip-rule:nonzero;display:inline;overflow:visible;visibility:visible;opacity:1;isolation:auto;mix-blend-mode:normal;color-interpolation:sRGB;color-interpolation-filters:linearRGB;solid-color:#000000;solid-opacity:1;fill:#abacae;fill-opacity:1;fill-rule:nonzero;stroke:none;stroke-width:1;stroke-linecap:butt;stroke-linejoin:miter;stroke-miterlimit:4;stroke-dasharray:none;stroke-dashoffset:0;stroke-opacity:1;marker:none;color-rendering:auto;image-rendering:auto;shape-rendering:auto;text-rendering:auto;enable-background:accumulate"
     d="M 19.5 21 C 19.223 21 19 21.223 19 21.5 L 19 22.5 C 19 22.777 19.223 23 19.5 23 L 20.5 23 C 20.777 23 21 22.777 21 22.5 L 21 21.5 C 21 21.223 20.777 21 20.5 21 L 19.5 21 z M 24.5 21 C 24.223 21 24 21.223 24 21.5 L 24 22.5 C 24 22.777 24.223 23 24.5 23 L 41.5 23 C 41.777 23 42 22.777 42 22.5 L 42 21.5 C 42 21.223 41.777 21 41.5 21 L 24.5 21 z M 19.5 39 C 19.223 39 19 39.223 19 39.5 L 19 40.5 C 19 40.777 19.223 41 19.5 41 L 20.5 41 C 20.777 41 21 40.777 21 40.5 L 21 39.5 C 21 39.223 20.777 39 20.5 39 L 19.5 39 z M 24.5 39 C 24.223 39 24 39.223 24 39.5 L 24 40.5 C 24 40.777 24.223 41 24.5 41 L 41.5 41 C 41.777 41 42 40.777 42 40.5 L 42 39.5 C 42 39.223 41.777 39 41.5 39 L 24.5 39 z "
     id="rect4250" />
  <path
     style="color:#000000;clip-rule:nonzero;display:inline;overflow:visible;visibility:visible;opacity:1;isolation:auto;mix-blend-mode:normal;color-interpolation:sRGB;color-interpolation-filters:linearRGB;solid-color:#000000;solid-opacity:1;fill:#ed5353;fill-opacity:1;fill-rule:nonzero;stroke:none;stroke-width:1;stroke-linecap:butt;stroke-linejoin:miter;stroke-miterlimit:4;stroke-dasharray:none;stroke-dashoffset:0;stroke-opacity:1;marker:none;color-rendering:auto;image-rendering:auto;shape-rendering:auto;text-rendering:auto;enable-background:accumulate"
     d="M 21.5 27 C 21.223 27 21 27.223 21 27.5 L 21 28.5 C 21 28.777 21.223 29 21.5 29 L 22.5 29 C 22.777 29 23 28.777 23 28.5 L 23 27.5 C 23 27.223 22.777 27 22.5 27 L 21.5 27 z M 26.5 27 C 26.223 27 26 27.223 26 27.5 L 26 28.5 C 26 28.777 26.223 29 26.5 29 L 43.5 29 C 43.777 29 44 28.777 44 28.5 L 44 27.5 C 44 27.223 43.777 27 43.5 27 L 26.5 27 z "
     id="rect4250-5" />
  <path
     style="color:#000000;clip-rule:nonzero;display:inline;overflow:visible;visibility:visible;opacity:1;isolation:auto;mix-blend-mode:normal;color-interpolation:sRGB;color-interpolation-filters:linearRGB;solid-color:#000000;solid-opacity:1;fill:#68b723;fill-opacity:1;fill-rule:nonzero;stroke:none;stroke-width:1;stroke-linecap:butt;stroke-linejoin:miter;stroke-miterlimit:4;stroke-dasharray:none;stroke-dashoffset:0;stroke-opacity:1;marker:none;color-rendering:auto;image-rendering:auto;shape-rendering:auto;text-rendering:auto;enable-background:accumulate"
     d="M 21.5 33 C 21.223 33 21 33.223 21 33.5 L 21 34.5 C 21 34.777 21.223 35 21.5 35 L 22.5 35 C 22.777 35 23 34.777 23 34.5 L 23 33.5 C 23 33.223 22.777 33 22.5 33 L 21.5 33 z M 26.5 33 C 26.223 33 26 33.223 26 33.5 L 26 34.5 C 26 34.777 26.223 35 26.5 35 L 43.5 35 C 43.777 35 44 34.777 44 34.5 L 44 33.5 C 44 33.223 43.777 33 43.5 33 L 26.5 33 z "
     id="rect4250-5-5" />
</svg>
